app/static/chain.svg

<svg height="132" viewBox="0 0 56 132" width="56" xmlns="http://www.w3.org/2000/svg" xmlns:xlink="http://www.w3.org/1999/xlink"><linearGradient id="a"><stop offset="0" stop-color="#738c9d"/><stop offset=".27" stop-color="#6c8597"/><stop offset=".67" stop-color="#577487"/><stop offset="1" stop-color="#416076"/></linearGradient><linearGradient id="b" x1=".037931%" x2="100.024349%" xlink:href="#a" y1="50.946924%" y2="50.946924%"/><linearGradient id="c" x1="100%" x2="4059%" xlink:href="#a" y1="1500%" y2="1500%"/><linearGradient id="d" x1="2741%" x2="100%" xlink:href="#a" y1="1298%" y2="1298%"/><g fill="none" transform="matrix(0 1 -1 0 56 0)"><path d="m118 42h-51.2c-7.8126714-.0878976-14.0777433-6.487221-14-14.3-.1339345-2.4191788 1.0805557-4.7141698 3.1561452-5.9640868 2.0755896-1.249917 4.67212-1.249917 6.7477096 0 2.0755895 1.249917 3.2900797 3.544908 3.1561452 5.9640868-.0004472.5149572.4054898.9385436.92.96h51.22c.522367-.010885.940113-.4375199.94-.96 0-3.6008966 2.919103-6.52 6.52-6.52s6.52 2.9191034 6.52 6.52c.077798 7.8050646-6.175173 14.2011659-13.98 14.3z" fill="url(#b)"/><path d="m59.6 56h-40c-10.93079334-.1208812-19.69994502-9.0689952-19.6-20v-16c-.10000193-10.92328796 8.65704965-19.86818232 19.58-20h40c10.9229503.13181768 19.6800019 9.07671204 19.58 20v16c.1000698 10.9155804-8.6448941 19.8572614-19.56 20zm-40-42.66c-3.648321.0330002-6.5821944 3.0115972-6.56 6.66v16c-.0333336 3.6484595 2.8916528 6.6360603 6.54 6.68h40c1.7539543-.015816 3.4294711-.7291607 4.656551-1.9825084 1.22708-1.2533478 1.9047812-2.9435957 1.883449-4.6974916v-16c.0333342-3.6374142-2.8826984-6.616061-6.52-6.66z" fill="url(#c)"/><path d="m125.48 34.46c-1.75047-.0210892-3.420852-.7367523-4.643617-1.9895235s-1.897729-2.9400098-1.876383-4.6904765c.000113-.5224801-.417633-.949115-.94-.96h-51.22c-.5145102.0214564-.9204472.4450428-.92.96.1339345 2.4191788-1.0805557 4.7141698-3.1561452 5.9640868-2.0755896 1.249917-4.67212 1.249917-6.7477096 0-2.0755895-1.249917-3.2900797-3.544908-3.1561452-5.9640868-.0777433-7.812779 6.1873286-14.2121024 14-14.3h51.18c7.812671.0878976 14.077743 6.487221 14 14.3.021346 1.7504667-.653618 3.4377053-1.876383 4.6904765s-2.893147 1.9684343-4.643617 1.9895235z" fill="url(#d)"/></g></svg>

<?xml version="1.0" encoding="UTF-8"?>
<svg width="56px" height="132px" viewBox="0 0 56 132" version="1.1" xmlns="http://www.w3.org/2000/svg" xmlns:xlink="http://www.w3.org/1999/xlink">
    <!-- Generator: Sketch 45.2 (43514) - http://www.bohemiancoding.com/sketch -->
    <title>chain</title>
    <desc>Created with Sketch.</desc>
    <defs>
        <linearGradient x1="0.0379311506%" y1="50.9469238%" x2="100.024349%" y2="50.9469238%" id="linearGradient-1">
            <stop stop-color="#738C9D" offset="0%"></stop>
            <stop stop-color="#6C8597" offset="27%"></stop>
            <stop stop-color="#577487" offset="67%"></stop>
            <stop stop-color="#416076" offset="100%"></stop>
        </linearGradient>
        <linearGradient x1="100%" y1="1500%" x2="4059%" y2="1500%" id="linearGradient-2">
            <stop stop-color="#738C9D" offset="0%"></stop>
            <stop stop-color="#6C8597" offset="27%"></stop>
            <stop stop-color="#577487" offset="67%"></stop>
            <stop stop-color="#416076" offset="100%"></stop>
        </linearGradient>
        <linearGradient x1="2741%" y1="1298%" x2="100%" y2="1298%" id="linearGradient-3">
            <stop stop-color="#738C9D" offset="0%"></stop>
            <stop stop-color="#6C8597" offset="27%"></stop>
            <stop stop-color="#577487" offset="67%"></stop>
            <stop stop-color="#416076" offset="100%"></stop>
        </linearGradient>
    </defs>
    <g id="Page-1" stroke="none" stroke-width="1" fill="none" fill-rule="evenodd">
        <g id="chain" transform="translate(28.000000, 67.000000) rotate(90.000000) translate(-28.000000, -67.000000) translate(-39.000000, 39.000000)" fill-rule="nonzero">
            <path d="M118,42 L66.8,42 C58.9873286,41.9121024 52.7222567,35.512779 52.8,27.7 C52.6660655,25.2808212 53.8805557,22.9858302 55.9561452,21.7359132 C58.0317348,20.4859962 60.6282652,20.4859962 62.7038548,21.7359132 C64.7794443,22.9858302 65.9939345,25.2808212 65.86,27.7 C65.8595528,28.2149572 66.2654898,28.6385436 66.78,28.66 L118,28.66 C118.522367,28.649115 118.940113,28.2224801 118.94,27.7 C118.94,24.0991034 121.859103,21.18 125.46,21.18 C129.060897,21.18 131.98,24.0991034 131.98,27.7 C132.057798,35.5050646 125.804827,41.9011659 118,42 L118,42 Z" id="Shape" fill="url(#linearGradient-1)"></path>
            <path d="M59.6,56 L19.6,56 C8.66920666,55.8791188 -0.0999450242,46.9310048 -6.08237419e-17,36 L-6.08237419e-17,20 C-0.100001927,9.07671204 8.65704965,0.131817682 19.58,0 L59.58,0 C70.5029503,0.131817682 79.2600019,9.07671204 79.16,20 L79.16,36 C79.2600698,46.9155804 70.5151059,55.8572614 59.6,56 Z M19.6,13.34 C15.951679,13.3730002 13.0178056,16.3515972 13.04,20 L13.04,36 C13.0066664,39.6484595 15.9316528,42.6360603 19.58,42.68 L59.58,42.68 C61.3339543,42.664184 63.0094711,41.9508393 64.236551,40.6974916 C65.463631,39.4441438 66.1413322,37.7538959 66.12,36 L66.12,20 C66.1533342,16.3625858 63.2373016,13.383939 59.6,13.34 L19.6,13.34 Z" id="Shape" fill="url(#linearGradient-2)"></path>
            <path d="M125.48,34.46 C123.72953,34.4389108 122.059148,33.7232477 120.836383,32.4704765 C119.613618,31.2177053 118.938654,29.5304667 118.96,27.78 C118.960113,27.2575199 118.542367,26.830885 118.02,26.82 L66.8,26.82 C66.2854898,26.8414564 65.8795528,27.2650428 65.88,27.78 C66.0139345,30.1991788 64.7994443,32.4941698 62.7238548,33.7440868 C60.6482652,34.9940038 58.0517348,34.9940038 55.9761452,33.7440868 C53.9005557,32.4941698 52.6860655,30.1991788 52.82,27.78 C52.7422567,19.967221 59.0073286,13.5678976 66.82,13.48 L118,13.48 C125.812671,13.5678976 132.077743,19.967221 132,27.78 C132.021346,29.5304667 131.346382,31.2177053 130.123617,32.4704765 C128.900852,33.7232477 127.23047,34.4389108 125.48,34.46 L125.48,34.46 Z" id="Shape" fill="url(#linearGradient-3)"></path>
        </g>
    </g>
</svg>
